static/cards/FrenchDeck/default/card_spades_10.svg

<svg width="219" height="304" viewBox="0 0 219 304" fill="none" xmlns="http://www.w3.org/2000/svg">
<g filter="url(#filter0_d_18_655)">
<g clip-path="url(#clip0_18_655)">
<rect x="8" y="4" width="203" height="288" rx="10" fill="white"/>
<path d="M15.4787 44.2002C14.3977 44.2002 13.737 43.4595 13.737 42.2783V18.395C13.737 17.2139 14.3977 16.4731 15.4787 16.4731C16.5598 16.4731 17.2404 17.2139 17.2404 18.395V42.2783C17.2404 43.4595 16.5598 44.2002 15.4787 44.2002ZM18.2454 30.8672V29.8662C18.2454 21.5781 21.7889 16.0928 27.9749 16.0928C34.1609 16.0928 37.6844 21.5781 37.6844 29.8662V30.8672C37.6844 39.1353 34.1409 44.5806 27.9549 44.5806C21.7889 44.5806 18.2454 39.1553 18.2454 30.8672ZM21.7488 29.8862V30.8271C21.7488 37.4937 24.1312 41.5576 27.9749 41.5576C31.8187 41.5576 34.201 37.4937 34.201 30.8271V29.8862C34.201 23.2197 31.7986 19.1357 27.9549 19.1357C24.1312 19.1357 21.7488 23.2197 21.7488 29.8862Z" fill="#211C1D"/>
<path d="M24.2375 72C24.0275 72 23.8572 71.8365 23.8572 71.6348C23.8572 71.2053 24.9342 68.3825 25.1943 66.4832C25.2256 66.2548 24.9357 66.1637 24.8047 66.3495C24.177 67.2399 23.5441 68.1922 21.8225 68.2149C18.615 68.2572 16.7672 65.2101 17.7761 62.4373C18.2708 61.0778 25.0754 52 26 52C26.9245 52 33.7292 61.0778 34.2239 62.4373C35.2328 65.2101 33.385 68.2572 30.1775 68.2149C28.4559 68.1922 27.823 67.2399 27.1953 66.3495C27.0643 66.1637 26.7744 66.2548 26.8057 66.4832C27.0658 68.3825 28.1428 71.2053 28.1428 71.6348C28.1428 71.8365 27.9725 72 27.7625 72H24.2375Z" fill="#211C1D"/>
<path d="M203.521 251.8C204.602 251.8 205.263 252.541 205.263 253.722L205.263 277.605C205.263 278.786 204.602 279.527 203.521 279.527C202.44 279.527 201.76 278.786 201.76 277.605L201.76 253.722C201.76 252.541 202.44 251.8 203.521 251.8ZM200.755 265.133L200.755 266.134C200.755 274.422 197.211 279.907 191.025 279.907C184.839 279.907 181.316 274.422 181.316 266.134L181.316 265.133C181.316 256.865 184.859 251.419 191.045 251.419C197.211 251.419 200.755 256.845 200.755 265.133ZM197.251 266.114L197.251 265.173C197.251 258.506 194.869 254.442 191.025 254.442C187.181 254.442 184.799 258.506 184.799 265.173L184.799 266.114C184.799 272.78 187.201 276.864 191.045 276.864C194.869 276.864 197.251 272.78 197.251 266.114Z" fill="#211C1D"/>
<path d="M194.762 224C194.973 224 195.143 224.164 195.143 224.365C195.143 224.795 194.066 227.617 193.806 229.517C193.774 229.745 194.064 229.836 194.195 229.65C194.823 228.76 195.456 227.808 197.178 227.785C200.385 227.743 202.233 230.79 201.224 233.563C200.729 234.922 193.925 244 193 244C192.075 244 185.271 234.922 184.776 233.563C183.767 230.79 185.615 227.743 188.823 227.785C190.544 227.808 191.177 228.76 191.805 229.65C191.936 229.836 192.226 229.745 192.194 229.517C191.934 227.617 190.857 224.795 190.857 224.365C190.857 224.164 191.027 224 191.238 224L194.762 224Z" fill="#211C1D"/>
<path d="M61.353 76C60.8588 76 60.4582 75.6076 60.4582 75.1235C60.4582 74.0926 62.9923 67.318 63.6043 62.7596C63.6779 62.2115 62.9958 61.993 62.6876 62.4389C61.2105 64.5759 59.7215 66.8613 55.6706 66.9157C48.1234 67.0172 43.7757 59.7041 46.1497 53.0496C47.3137 49.7867 63.3245 28 65.5 28C67.6754 28 83.6864 49.7867 84.8503 53.0496C87.2243 59.7041 82.8766 67.0172 75.3294 66.9157C71.2785 66.8613 69.7895 64.5759 68.3124 62.4389C68.0042 61.993 67.3221 62.2115 67.3957 62.7596C68.0077 67.318 70.5418 74.0926 70.5418 75.1235C70.5418 75.6076 70.1412 76 69.647 76H61.353Z" fill="#211C1D"/>
<path d="M61.353 156C60.8588 156 60.4582 156.392 60.4582 156.877C60.4582 157.907 62.9923 164.682 63.6043 169.24C63.6779 169.789 62.9958 170.007 62.6876 169.561C61.2105 167.424 59.7215 165.139 55.6706 165.084C48.1234 164.983 43.7757 172.296 46.1497 178.95C47.3137 182.213 63.3245 204 65.5 204C67.6754 204 83.6864 182.213 84.8503 178.95C87.2243 172.296 82.8766 164.983 75.3294 165.084C71.2785 165.139 69.7895 167.424 68.3124 169.561C68.0042 170.007 67.3221 169.789 67.3957 169.24C68.0077 164.682 70.5418 157.907 70.5418 156.877C70.5418 156.392 70.1412 156 69.647 156H61.353Z" fill="#211C1D"/>
<path d="M149.353 76C148.859 76 148.458 75.6076 148.458 75.1235C148.458 74.0926 150.992 67.318 151.604 62.7596C151.678 62.2115 150.996 61.993 150.688 62.4389C149.211 64.5759 147.721 66.8613 143.671 66.9157C136.123 67.0172 131.776 59.7041 134.15 53.0496C135.314 49.7867 151.325 28 153.5 28C155.675 28 171.686 49.7867 172.85 53.0496C175.224 59.7041 170.877 67.0172 163.329 66.9157C159.279 66.8613 157.789 64.5759 156.312 62.4389C156.004 61.993 155.322 62.2115 155.396 62.7596C156.008 67.318 158.542 74.0926 158.542 75.1235C158.542 75.6076 158.141 76 157.647 76H149.353Z" fill="#211C1D"/>
<path d="M61.353 140C60.8588 140 60.4582 139.608 60.4582 139.123C60.4582 138.093 62.9923 131.318 63.6043 126.76C63.6779 126.211 62.9958 125.993 62.6876 126.439C61.2105 128.576 59.7215 130.861 55.6706 130.916C48.1234 131.017 43.7757 123.704 46.1497 117.05C47.3137 113.787 63.3245 92 65.5 92C67.6754 92 83.6864 113.787 84.8503 117.05C87.2243 123.704 82.8766 131.017 75.3294 130.916C71.2785 130.861 69.7895 128.576 68.3124 126.439C68.0042 125.993 67.3221 126.211 67.3957 126.76C68.0077 131.318 70.5418 138.093 70.5418 139.123C70.5418 139.608 70.1412 140 69.647 140H61.353Z" fill="#211C1D"/>
<path d="M61.353 220C60.8588 220 60.4582 220.392 60.4582 220.877C60.4582 221.907 62.9923 228.682 63.6043 233.24C63.6779 233.789 62.9958 234.007 62.6876 233.561C61.2105 231.424 59.7215 229.139 55.6706 229.084C48.1234 228.983 43.7757 236.296 46.1497 242.95C47.3137 246.213 63.3245 268 65.5 268C67.6754 268 83.6864 246.213 84.8503 242.95C87.2243 236.296 82.8766 228.983 75.3294 229.084C71.2785 229.139 69.7895 231.424 68.3124 233.561C68.0042 234.007 67.3221 233.789 67.3957 233.24C68.0077 228.682 70.5418 221.907 70.5418 220.877C70.5418 220.392 70.1412 220 69.647 220H61.353Z" fill="#211C1D"/>
<path d="M149.353 140C148.859 140 148.458 139.608 148.458 139.123C148.458 138.093 150.992 131.318 151.604 126.76C151.678 126.211 150.996 125.993 150.688 126.439C149.211 128.576 147.721 130.861 143.671 130.916C136.123 131.017 131.776 123.704 134.15 117.05C135.314 113.787 151.325 92 153.5 92C155.675 92 171.686 113.787 172.85 117.05C175.224 123.704 170.877 131.017 163.329 130.916C159.279 130.861 157.789 128.576 156.312 126.439C156.004 125.993 155.322 126.211 155.396 126.76C156.008 131.318 158.542 138.093 158.542 139.123C158.542 139.608 158.141 140 157.647 140H149.353Z" fill="#211C1D"/>
<path d="M105.353 108C104.859 108 104.458 107.608 104.458 107.123C104.458 106.093 106.992 99.318 107.604 94.7596C107.678 94.2115 106.996 93.993 106.688 94.4389C105.211 96.5759 103.721 98.8613 99.6706 98.9157C92.1234 99.0172 87.7757 91.7041 90.1497 85.0496C91.3137 81.7867 107.325 60 109.5 60C111.675 60 127.686 81.7867 128.85 85.0496C131.224 91.7041 126.877 99.0172 119.329 98.9157C115.279 98.8613 113.789 96.5759 112.312 94.4389C112.004 93.993 111.322 94.2115 111.396 94.7596C112.008 99.318 114.542 106.093 114.542 107.123C114.542 107.608 114.141 108 113.647 108H105.353Z" fill="#211C1D"/>
<path d="M105.353 188C104.859 188 104.458 188.392 104.458 188.877C104.458 189.907 106.992 196.682 107.604 201.24C107.678 201.789 106.996 202.007 106.688 201.561C105.211 199.424 103.721 197.139 99.6706 197.084C92.1234 196.983 87.7757 204.296 90.1497 210.95C91.3137 214.213 107.325 236 109.5 236C111.675 236 127.686 214.213 128.85 210.95C131.224 204.296 126.877 196.983 119.329 197.084C115.279 197.139 113.789 199.424 112.312 201.561C112.004 202.007 111.322 201.789 111.396 201.24C112.008 196.682 114.542 189.907 114.542 188.877C114.542 188.392 114.141 188 113.647 188H105.353Z" fill="#211C1D"/>
<path d="M149.353 220C148.859 220 148.458 220.392 148.458 220.877C148.458 221.907 150.992 228.682 151.604 233.24C151.678 233.789 150.996 234.007 150.688 233.561C149.211 231.424 147.721 229.139 143.671 229.084C136.123 228.983 131.776 236.296 134.15 242.95C135.314 246.213 151.325 268 153.5 268C155.675 268 171.686 246.213 172.85 242.95C175.224 236.296 170.877 228.983 163.329 229.084C159.279 229.139 157.789 231.424 156.312 233.561C156.004 234.007 155.322 233.789 155.396 233.24C156.008 228.682 158.542 221.907 158.542 220.877C158.542 220.392 158.141 220 157.647 220H149.353Z" fill="#211C1D"/>
<path d="M149.353 156C148.859 156 148.458 156.392 148.458 156.877C148.458 157.907 150.992 164.682 151.604 169.24C151.678 169.789 150.996 170.007 150.688 169.561C149.211 167.424 147.721 165.139 143.671 165.084C136.123 164.983 131.776 172.296 134.15 178.95C135.314 182.213 151.325 204 153.5 204C155.675 204 171.686 182.213 172.85 178.95C175.224 172.296 170.877 164.983 163.329 165.084C159.279 165.139 157.789 167.424 156.312 169.561C156.004 170.007 155.322 169.789 155.396 169.24C156.008 164.682 158.542 157.907 158.542 156.877C158.542 156.392 158.141 156 157.647 156H149.353Z" fill="#211C1D"/>
</g>
</g>
<defs>
<filter id="filter0_d_18_655" x="0" y="0" width="219" height="304" filterUnits="userSpaceOnUse" color-interpolation-filters="sRGB">
<feFlood flood-opacity="0" result="BackgroundImageFix"/>
<feColorMatrix in="SourceAlpha" type="matrix" values="0 0 0 0 0 0 0 0 0 0 0 0 0 0 0 0 0 0 127 0" result="hardAlpha"/>
<feOffset dy="4"/>
<feGaussianBlur stdDeviation="4"/>
<feComposite in2="hardAlpha" operator="out"/>
<feColorMatrix type="matrix" values="0 0 0 0 0.614771 0 0 0 0 0.70094 0 0 0 0 0.806257 0 0 0 1 0"/>
<feBlend mode="normal" in2="BackgroundImageFix" result="effect1_dropShadow_18_655"/>
<feBlend mode="normal" in="SourceGraphic" in2="effect1_dropShadow_18_655" result="shape"/>
</filter>
<clipPath id="clip0_18_655">
<rect x="8" y="4" width="203" height="288" rx="10" fill="white"/>
</clipPath>
</defs>
</svg>

<svg xmlns="http://www.w3.org/2000/svg" width="219" height="304" fill="none" viewBox="0 0 219 304"><g filter="url(#a)"><g clip-path="url(#b)"><rect width="203" height="288" x="8" y="4" fill="#fff" rx="10"/><path fill="#211c1d" d="M15.479 44.2c-1.081 0-1.742-.74-1.742-1.922V18.395c0-1.181.66-1.922 1.742-1.922 1.08 0 1.761.74 1.761 1.922v23.883c0 1.181-.68 1.922-1.761 1.922m2.766-13.333v-1c0-8.289 3.544-13.774 9.73-13.774s9.71 5.485 9.71 13.773v1.001c0 8.268-3.544 13.714-9.73 13.714-6.166 0-9.71-5.426-9.71-13.714m3.504-.98v.94c0 6.667 2.382 10.73 6.226 10.73s6.226-4.063 6.226-10.73v-.94c0-6.667-2.402-10.751-6.246-10.751-3.824 0-6.206 4.084-6.206 10.75M24.238 72a.373.373 0 0 1-.38-.365c0-.43 1.076-3.253 1.336-5.152.032-.228-.258-.32-.39-.133-.627.89-1.26 1.842-2.981 1.865-3.208.042-5.056-3.005-4.047-5.778C18.271 61.077 25.076 52 26 52s7.73 9.078 8.224 10.437c1.009 2.773-.839 5.82-4.046 5.778-1.722-.023-2.355-.975-2.983-1.865-.13-.186-.42-.095-.39.133.26 1.9 1.338 4.722 1.338 5.152 0 .201-.17.365-.38.365zM203.521 251.8c1.081 0 1.742.741 1.742 1.922v23.883c0 1.181-.661 1.922-1.742 1.922s-1.761-.741-1.761-1.922v-23.883c0-1.181.68-1.922 1.761-1.922m-2.766 13.333v1.001c0 8.288-3.544 13.773-9.73 13.773s-9.709-5.485-9.709-13.773v-1.001c0-8.268 3.543-13.714 9.729-13.714 6.166 0 9.71 5.426 9.71 13.714m-3.504.981v-.941c0-6.667-2.382-10.731-6.226-10.731s-6.226 4.064-6.226 10.731v.941c0 6.666 2.402 10.75 6.246 10.75 3.824 0 6.206-4.084 6.206-10.75M194.762 224c.211 0 .381.164.381.365 0 .43-1.077 3.252-1.337 5.152-.032.228.258.319.389.133.628-.89 1.261-1.842 2.983-1.865 3.207-.042 5.055 3.005 4.046 5.778C200.729 234.922 193.925 244 193 244s-7.729-9.078-8.224-10.437c-1.009-2.773.839-5.82 4.047-5.778 1.721.023 2.354.975 2.982 1.865.131.186.421.095.389-.133-.26-1.9-1.337-4.722-1.337-5.152 0-.201.17-.365.381-.365zM61.353 76a.886.886 0 0 1-.895-.876c0-1.031 2.534-7.806 3.146-12.364.074-.548-.608-.767-.916-.321-1.477 2.137-2.967 4.422-7.017 4.477-7.548.101-11.895-7.212-9.521-13.866C47.314 49.787 63.325 28 65.5 28s18.186 21.787 19.35 25.05c2.374 6.654-1.973 13.967-9.52 13.866-4.052-.055-5.54-2.34-7.018-4.477-.308-.446-.99-.227-.916.32.612 4.559 3.146 11.334 3.146 12.365 0 .484-.4.876-.895.876zM61.353 156a.886.886 0 0 0-.895.877c0 1.03 2.534 7.805 3.146 12.363.074.549-.608.767-.916.321-1.477-2.137-2.967-4.422-7.017-4.477-7.548-.101-11.895 7.212-9.521 13.866C47.314 182.213 63.325 204 65.5 204s18.186-21.787 19.35-25.05c2.374-6.654-1.973-13.967-9.52-13.866-4.052.055-5.54 2.34-7.018 4.477-.308.446-.99.228-.916-.321.612-4.558 3.146-11.333 3.146-12.363 0-.485-.4-.877-.895-.877zM149.353 76a.886.886 0 0 1-.895-.876c0-1.031 2.534-7.806 3.146-12.364.074-.548-.608-.767-.916-.321-1.477 2.137-2.967 4.422-7.017 4.477-7.548.101-11.895-7.212-9.521-13.866C135.314 49.787 151.325 28 153.5 28s18.186 21.787 19.35 25.05c2.374 6.654-1.973 13.967-9.521 13.866-4.05-.055-5.54-2.34-7.017-4.477-.308-.446-.99-.227-.916.32.612 4.559 3.146 11.334 3.146 12.365a.886.886 0 0 1-.895.876zM61.353 140a.886.886 0 0 1-.895-.877c0-1.03 2.534-7.805 3.146-12.363.074-.549-.608-.767-.916-.321-1.477 2.137-2.967 4.422-7.017 4.477-7.548.101-11.895-7.212-9.521-13.866C47.314 113.787 63.325 92 65.5 92s18.186 21.787 19.35 25.05c2.374 6.654-1.973 13.967-9.52 13.866-4.052-.055-5.54-2.34-7.018-4.477-.308-.446-.99-.228-.916.321.612 4.558 3.146 11.333 3.146 12.363 0 .485-.4.877-.895.877zM61.353 220a.886.886 0 0 0-.895.877c0 1.03 2.534 7.805 3.146 12.363.074.549-.608.767-.916.321-1.477-2.137-2.967-4.422-7.017-4.477-7.548-.101-11.895 7.212-9.521 13.866C47.314 246.213 63.325 268 65.5 268s18.186-21.787 19.35-25.05c2.374-6.654-1.973-13.967-9.52-13.866-4.052.055-5.54 2.34-7.018 4.477-.308.446-.99.228-.916-.321.612-4.558 3.146-11.333 3.146-12.363 0-.485-.4-.877-.895-.877zM149.353 140a.886.886 0 0 1-.895-.877c0-1.03 2.534-7.805 3.146-12.363.074-.549-.608-.767-.916-.321-1.477 2.137-2.967 4.422-7.017 4.477-7.548.101-11.895-7.212-9.521-13.866C135.314 113.787 151.325 92 153.5 92s18.186 21.787 19.35 25.05c2.374 6.654-1.973 13.967-9.521 13.866-4.05-.055-5.54-2.34-7.017-4.477-.308-.446-.99-.228-.916.321.612 4.558 3.146 11.333 3.146 12.363a.886.886 0 0 1-.895.877zM105.353 108a.886.886 0 0 1-.895-.877c0-1.03 2.534-7.805 3.146-12.363.074-.549-.608-.767-.916-.321-1.477 2.137-2.967 4.422-7.017 4.477-7.548.101-11.895-7.212-9.521-13.866C91.314 81.787 107.325 60 109.5 60s18.186 21.787 19.35 25.05c2.374 6.654-1.973 13.967-9.521 13.866-4.05-.055-5.54-2.34-7.017-4.477-.308-.446-.99-.227-.916.32.612 4.559 3.146 11.334 3.146 12.364a.886.886 0 0 1-.895.877zM105.353 188a.886.886 0 0 0-.895.877c0 1.03 2.534 7.805 3.146 12.363.074.549-.608.767-.916.321-1.477-2.137-2.967-4.422-7.017-4.477-7.548-.101-11.895 7.212-9.521 13.866 1.164 3.263 17.175 25.05 19.35 25.05s18.186-21.787 19.35-25.05c2.374-6.654-1.973-13.967-9.521-13.866-4.05.055-5.54 2.34-7.017 4.477-.308.446-.99.228-.916-.321.612-4.558 3.146-11.333 3.146-12.363a.886.886 0 0 0-.895-.877zM149.353 220a.886.886 0 0 0-.895.877c0 1.03 2.534 7.805 3.146 12.363.074.549-.608.767-.916.321-1.477-2.137-2.967-4.422-7.017-4.477-7.548-.101-11.895 7.212-9.521 13.866 1.164 3.263 17.175 25.05 19.35 25.05s18.186-21.787 19.35-25.05c2.374-6.654-1.973-13.967-9.521-13.866-4.05.055-5.54 2.34-7.017 4.477-.308.446-.99.228-.916-.321.612-4.558 3.146-11.333 3.146-12.363a.886.886 0 0 0-.895-.877zM149.353 156a.886.886 0 0 0-.895.877c0 1.03 2.534 7.805 3.146 12.363.074.549-.608.767-.916.321-1.477-2.137-2.967-4.422-7.017-4.477-7.548-.101-11.895 7.212-9.521 13.866 1.164 3.263 17.175 25.05 19.35 25.05s18.186-21.787 19.35-25.05c2.374-6.654-1.973-13.967-9.521-13.866-4.05.055-5.54 2.34-7.017 4.477-.308.446-.99.228-.916-.321.612-4.558 3.146-11.333 3.146-12.363a.886.886 0 0 0-.895-.877z"/></g></g><defs><clipPath id="b"><rect width="203" height="288" x="8" y="4" fill="#fff" rx="10"/></clipPath><filter id="a" width="219" height="304" x="0" y="0" color-interpolation-filters="sRGB" filterUnits="userSpaceOnUse"><feFlood flood-opacity="0" result="BackgroundImageFix"/><feColorMatrix in="SourceAlpha" result="hardAlpha" values="0 0 0 0 0 0 0 0 0 0 0 0 0 0 0 0 0 0 127 0"/><feOffset dy="4"/><feGaussianBlur stdDeviation="4"/><feComposite in2="hardAlpha" operator="out"/><feColorMatrix values="0 0 0 0 0.614771 0 0 0 0 0.70094 0 0 0 0 0.806257 0 0 0 1 0"/><feBlend in2="BackgroundImageFix" result="effect1_dropShadow_18_655"/><feBlend in="SourceGraphic" in2="effect1_dropShadow_18_655" result="shape"/></filter></defs></svg>
